!!!!SEGMENT: pl-sa--155-a-iv-5--001-002_luna-georgius--vesperae-in-d-confitebor.krn
!!!cenid: 17xx:521
!!!COM: Luna, Georgius
!!!COM-rismID: pe41010079
!!!CDT:
!!!CNT:
!!!OPR: Vesperae in D
!!!OTL: Confitebor
!!!OMV: 002
!!!PDT:
!!!AGN: Sacred; Vespers
!!!YEC: Copyright 2022 Narodowy Instytut Fryderyka Chopina (https://polishscores.org)
!!!YEM: License CC-BY-4.0 (https://creativecommons.org/licenses/by/4.0)
!!!SMS-siglum: PL-SA
!!!SMS-shelfmark: 155/A IV 5
!!!SMS-shelfwork: 001-002 M
!!!SMS-variant:
!!!SMS-altvar:
!!!NIFC-rismSourceID: 1001070698
!!!NIFC-rismChildID: 1001070698
!!!NIFC-islandoraID: none
!!!URL-pdf-islandora:
!!!URL-scan: https://bc.bdsandomierz.pl/dlibra/publication/1541/edition/1509/content @EN{Scan in the Sandomierz Diocese Digital Library} @PL{Skany w portalu Cyfrowa Biblioteka Diecezjalna w Sandomierzu}
!!!IIIF:
!!!ONB-nifc: UWAGA: części Vesperae: Dixit Dominus, Confitebor, Beatus vir, Laudate pueri, Laudate Dominum, Magnificat
!!!AIN: 1 organ 1 soprn 1 tenor 2 violn
!!!key: D
!!!filter-modern: sic -sq | nproof | shed -k -e "s/:TUP:/:tup:/L" | shed -k -e "s/#X/#/g" | shed -k -e "s/ny/n/g" | shed -k -e "s/-X/-/g" | shed -k -e "s/nX/n/g" |  shed -e "s/Xtuplet/tuplet/I" | -shed -e "s/TX(.*):t=P:/tx$1:t=P:/LG" | shed -e "s/(LO:DY.*):t=(.*$)/$1:T=$2/L; s/LO:DY(.*)(:a:)(.*)/LO:dy:$1$2$3/L; s/LO:DY(.*)(:b:)(.*)/LO:dy:$1$2$3/L; s/LO:DY(.*)(:[ab])$/LO:dy:$1$2/L; s/LO:DY(.*)(:rj:)(.*)/LO:dy:$1$2$3/L" |  shed -k -e "s/LO:N:vis/LO:n:vis:/L" | shed -e "s/:rj/:RJ/L" | shed -e "s/^(\d+[\/\\]right)/$1yy/I;s/^(\d+[\/\\]left)/$1yy/I" | shed -e "s/LO:DY:(a|b|rj)/LO:dy:$1/L" | shed -e "s/-//B" | modori -m | tie -s | autostem -r | humtr -p | extract -s 1-8,10-11 |
**kern	**dynam	**kern	**kern	**kern	**text	**mod-text	**kern	**text	**text	**mod-text
*group3	*	*group2	*group2	*group1	*	*	*group1	*	*	*
*part5	*	*part4	*part3	*part2	*	*	*part1	*	*	*
*staff5	*	*staff4	*staff3	*staff2	*	*	*staff1	*	*	*
*ICklav	*	*ICstr	*ICstr	*ICvox	*	*	*ICvox	*	*	*
*Iorgan	*	*Ivioln	*Ivioln	*Itenor	*	*	*Isoprn	*	*	*
*I"Fundamento	*	*I"Violino Secundo	*I"Violino Primo	*I"Tenor	*	*	*I"Canto	*	*	*
*I'bc	*	*I'vl 2	*I'vl 1	*I'T	*	*	*I'S	*	*	*
*clefF4	*	*clefG2	*clefG2	*clefC4	*	*	*clefC1	*	*	*
*	*	*	*	*mclefG2v	*	*	*mclefG2	*	*	*
*k[f#c#]	*	*k[f#c#]	*k[f#c#]	*k[f#c#]	*	*	*k[f#c#]	*	*	*
*D:	*	*D:	*D:	*D:	*	*	*D:	*	*	*
*M4/4	*	*M4/4	*M4/4	*M4/4	*	*	*M4/4	*	*	*
*met(c)	*	*met(c)	*met(c)	*met(c)	*	*	*met(c)	*	*	*
=1	=1	=1	=1	=1	=1	=1	=1	=1	=1	=1
!!!OMD:
!!!OMD-mod: Allegro
!LO:TX:a:t=Allo Solo:mod=	!	!	!LO:TX:a:t=Allo n(on) molto:mod=	!LO:TX:b:t=Confite.:mod=	!	!	!	!	!	!
!LO:TX:b:t=Confitebor:mod=	!	!	!LO:TX:b:t=Confitebor:mod=	!	!	!	!	!	!	!
8D\L	.	00r	00r	00r	.	.	4.dd	.	Con-	Con-
8E\	.	.	.	.	.	.	.	.	.	.
8F#\	.	.	.	.	.	.	.	.	.	.
8G\J	.	.	.	.	.	.	8ff#	.	-fi-	-fi-
8A\L	.	.	.	.	.	.	16ee\L	.	-te-	-te-
.	.	.	.	.	.	.	16cc#\J	.	.	.
.	.	.	.	.	.	.	8qqb/	.	.	.
!	!	!	!	!	!	!	!LO:N:vis=4	!	!	!
8B\	.	.	.	.	.	.	4.a\	.	-bor	-bor
8c#\	.	.	.	.	.	.	.	.	.	.
8F#\J	.	.	.	.	.	.	.	.	.	.
=2	=2	=2	=2	=2	=2	=2	=2	=2	=2	=2
!LO:TX:t=P:problem:mixed beam	!	!	!	!	!	!	!	!	!	!
8G\L	.	.	.	.	.	.	4b\	.	ti-	ti-
8E\	.	.	.	.	.	.	.	.	.	.
8A\	.	.	.	.	.	.	8a\L	.	-bi	-bi
8AA/J	.	.	.	.	.	.	8g\J	.	.	.
8D\L	.	.	.	.	.	.	16f#/	.	Do-	Do-
.	.	.	.	.	.	.	16e/	.	-mi-	-mi-
16D\L	.	.	.	.	.	.	8d/	.	-ne	-ne
16E\JJ	.	.	.	.	.	.	.	.	.	.
8F#\L	.	.	.	.	.	.	8r	.	.	.
8D\J	.	.	.	.	.	.	8a\	.	in	in
=3	=3	=3	=3	=3	=3	=3	=3	=3	=3	=3
!LO:TX:t=P:problem:mixed beam	!	!	!	!	!	!	!	!	!	!
8G\L	.	.	.	.	.	.	8b\	.	to-	to-
8G\	.	.	.	.	.	.	4dd\	.	.	.
8GG/	.	.	.	.	.	.	.	.	.	.
8G\J	.	.	.	.	.	.	8b\	.	-to	-to
8D\L	.	.	.	.	.	.	8b\	.	cor-	cor-
8E\	.	.	.	.	.	.	4.a\	.	-de	-de
8F#\	.	.	.	.	.	.	.	.	.	.
8D\J	.	.	.	.	.	.	.	.	.	.
=4	=4	=4	=4	=4	=4	=4	=4	=4	=4	=4
!	!	!	!	!	!	!	!LO:MO:mod=4gg	!	!	!
8E\L	.	.	.	.	.	.	(4gg\	.	cor-	cor-
8C#\	.	.	.	.	.	.	.	.	.	.
!	!	!	!	!	!	!	!LO:MO:mod=4ff#	!	!	!
8D\	.	.	.	.	.	.	4ff#\)	.	-de	-de
8G\J	.	.	.	.	.	.	.	.	.	.
!LO:TX:t=P:problem:mixed beam	!	!	!	!	!	!	!	!	!	!
8A\L	.	.	.	.	.	.	8ff#\	.	me-	me-
8AA/	.	.	.	.	.	.	8ee\	.	-o	-o
8C#/	.	.	.	.	.	.	4r	.	.	.
8AA/J	.	.	.	.	.	.	.	.	.	.
!	!	!	!	!	!	!	!LO:LB:g=original	!	!	!
=5	=5	=5	=5	=5	=5	=5	=5	=5	=5	=5
8D\L	.	0r	0r	0r	.	.	8ff#\	.	in	in
8D\	.	.	.	.	.	.	8ff#\	.	con-	con-
8G\	.	.	.	.	.	.	8ee\	.	-ſi-	-ſi-
8B\J	.	.	.	.	.	.	8dd\	.	-li-	-li-
!LO:TX:t=P:problem:mixed beam	!	!	!	!	!	!	!	!	!	!
8A\L	.	.	.	.	.	.	16cc#\LL	.	-o	-o
.	.	.	.	.	.	.	16b\JJ	.	.	.
8AA/	.	.	.	.	.	.	16a\LL	.	ius-	ius-
.	.	.	.	.	.	.	16b\JJ	.	.	.
8C#/	.	.	.	.	.	.	16cc#\LL	.	-to-	-to-
.	.	.	.	.	.	.	16dd\JJ	.	.	.
8D/J	.	.	.	.	.	.	16ee\LL	.	-rum	-rum
.	.	.	.	.	.	.	16ff#\JJ	.	.	.
=6	=6	=6	=6	=6	=6	=6	=6	=6	=6	=6
8E\L	.	.	.	.	.	.	8gg\L	.	et	et
8C#\	.	.	.	.	.	.	8ee\J	.	.	.
8D\	.	.	.	.	.	.	8ff#\	.	con-	con-
8F#\J	.	.	.	.	.	.	8dd\	.	-gre-	-gre-
!LO:TX:t=P:problem:mixed beam	!	!	!	!	!	!	!	!	!	!
8G\L	.	.	.	.	.	.	8b\	.	-ga-	-ga-
!	!	!	!	!	!	!	!	!	!LO:SIC:v:s=-ti-	!LO:SIC:v:s=-ti-
8E\	.	.	.	.	.	.	8ee\	.	-ci-	-ci-
8A\	.	.	.	.	.	.	4cc#\	.	-o-	-o-
8AA/J	.	.	.	.	.	.	.	.	.	.
=7	=7	=7	=7	=7	=7	=7	=7	=7	=7	=7
!	!LO:DY:t=for	!	!	!	!	!	!	!	!	!
!	!LO:DY:a	!	!	!	!	!	!	!	!	!
8D\L	f	8f#/L	4.dd\	8F#/L	Ma-	Ma-	8dd\	.	-ne	-ne
8E\	.	8g/	.	8G/J	.	.	4dd\	.	ma-	ma-
8F#\	.	8a/	.	8A\L	-gna	-gna	.	.	.	.
8G\J	.	8b/J	8ff#\	8B\J	.	.	8ff#\	.	-gna	-gna
8A\L	.	8cc#\L	16ee\LL	8c#\	o-	o-	16ee\	.	o-	o-
.	.	.	16cc#\JJ	.	.	.	16cc#\	.	-pe-	-pe-
.	.	.	.	.	.	.	8qqb/	.	.	.
!	!	!	!	!	!	!	!LO:N:vis=4	!	!	!
8B\	.	8dd\	4.a/	8d\	-pe-	-pe-	4.a\	.	-ra	-ra
8c#\	.	8ee\	.	8e\L	-ra	-ra	.	.	.	.
8F#\J	.	8a\J	.	8c#\J	.	.	.	.	.	.
!	!	!	!	!	!	!	!LO:LB:g=original	!	!	!
=8	=8	=8	=8	=8	=8	=8	=8	=8	=8	=8
!LO:TX:t=P:problem:mixed beam	!	!	!	!	!	!	!	!	!	!
8G\L	.	16g/LL	16b\LL	4G/	Do-	Do-	4b\	.	Do-	Do-
.	.	16b/	16dd\	.	.	.	.	.	.	.
8E\	.	16a/	16cc#\	.	.	.	.	.	.	.
.	.	16g/JJ	16b\JJ	.	.	.	.	.	.	.
!	!	!	!	!LO:TX:t=P:problem:mixed beam	!	!	!	!	!	!
8A\	.	16f#/LL	16a/LL	8F#/L	.	.	8a\L	.	.	.
.	.	16e/	16g/	.	.	.	.	.	.	.
8AA/J	.	16d/	16f#/	8e\J	.	.	8g\J	.	.	.
.	.	16c#/JJ	16e/JJ	.	.	.	.	.	.	.
8D\L	.	16d/LL	16f#/LL	16d\	-mi-	.	16f#/	.	.	.
.	.	16c#/J	16e/J	16c#\	.	-mi-	16e/	.	-mi-	-mi-
8E\	.	8d/J	8d/J	8d\	-ni	-ni	8d/	.	-ni	-ni
8F#\	.	8a/L	16d/LL	4r	.	.	4r	.	.	.
.	.	.	16f#/	.	.	.	.	.	.	.
8D\J	.	8f#/J	16a/	.	.	.	.	.	.	.
.	.	.	16dd/JJ	.	.	.	.	.	.	.
=9	=9	=9	=9	=9	=9	=9	=9	=9	=9	=9
!LO:TX:t=P:problem:mixed beam	!	!	!	!	!	!	!	!	!	!
8G\L	.	16g\LL	16b\LL	8G/	ex-	ex-	8b\	.	ex-	ex-
.	.	16b\	16dd\	.	.	.	.	.	.	.
8G\	.	16dd\	16gg\	4B\	-qui-	.	4dd\	.	.	.
.	.	16gg\JJ	16bb\JJ	.	.	.	.	.	.	.
8GG/	.	16dd\LL	16gg\LL	.	.	.	.	.	.	.
!	!	!LO:MO:mod=16b	!	!	!	!	!	!	!	!
.	.	16b\JJ	16dd\	.	.	.	.	.	.	.
!	!	!LO:MO:mod=16g	!	!	!	!	!	!	!	!
8G\J	.	16g/LL	16b\	8G/	.	-qui-	8b\	.	-qui	-qui
.	.	16d/JJ	16g\JJ	.	.	.	.	.	.	.
!LO:LB:g=original	!	!	!	!	!	!	!	!	!	!
8D\L	.	16g/LL	16b/LL	8G/	-si-	-si-	8b\	.	ſi-	ſi-
.	.	16e/JJ	16g/JJ	.	.	.	.	.	.	.
8E\	.	4.f#/	4.a/	4.G/	-ta	-ta	4.a\	.	-ta	-ta
8F#\	.	.	.	.	.	.	.	.	.	.
8D\J	.	.	.	.	.	.	.	.	.	.
=10	=10	=10	=10	=10	=10	=10	=10	=10	=10	=10
*	*	*Xtuplet	*Xtuplet	*	*	*	*	*	*	*
!	!	!	!	!LO:MO:mod=4e	!	!	!	!	!LO:SIC:v:s=in	!LO:SIC:v:s=in
8E\L	.	24e/LL	24a\LL	(4e\	in	in	4gg\	.	in-	in-
.	.	24a/	24cc#\	.	.	.	.	.	.	.
.	.	24cc#/JJ	24ee\JJ	.	.	.	.	.	.	.
8C#\	.	4ee\	8gg\	.	.	.	.	.	.	.
!	!	!	!	!LO:MO:mod=4d	!	!	!	!	!	!
8D\	.	.	4ff#\	4d\)	.	.	4ff#\	.	.	.
8G\J	.	8dd\	.	.	.	.	.	.	.	.
!LO:TX:t=P:problem:mixed beam	!	!	!	!	!	!	!	!	!LO:SIC:v:s=om-	!LO:SIC:v:s=om-
8A\L	.	8dd\L	8ff#\L	8d\	om-	om-	8ff#\	.	-on-	-on-
8AA/	.	8cc#\J	8ee\J	8c#\	-nes	-nes	8ee\	.	-nes	-nes
8C#/	.	16cc#\LL	16ee\LL	4r	.	.	4r	.	.	.
.	.	16a\	16cc#\	.	.	.	.	.	.	.
8AA/J	.	16ee\	16aa\	.	.	.	.	.	.	.
.	.	16cc#\JJ	16ee\JJ	.	.	.	.	.	.	.
=11	=11	=11	=11	=11	=11	=11	=11	=11	=11	=11
8E\L	.	8b\	8dd\	4B\	vo-	vo-	4dd\	.	vo-	vo-
!LO:MO:mod=8e	!	!	!	!	!	!	!	!	!	!
8e\J	.	4dd\	4bb\	.	.	.	.	.	.	.
!LO:MO:mod=8e	!	!	!	!	!	!	!	!	!	!
8e\L	.	.	.	4B\	-lun-	-lun-	4dd\	.	-lun-	-lun-
8E\J	.	8b\	8dd\	.	.	.	.	.	.	.
!	!	!	!LO:LB:g=original	!LO:LB:g=original	!	!	!	!	!	!
8r	.	8a\	8cc#\	4A\	-ta-	-ta-	4cc#\	.	-ta-	-ta-
!LO:TX:t=P:problem:mixed beam	!	!	!	!	!	!	!	!	!	!
8A\L	.	4cc#\	4aa\	.	.	.	.	.	.	.
8A\	.	.	.	4A\	-tes	-tes	4cc#\	.	-tes	-tes
8AA/J	.	8a\	8cc#\	.	.	.	.	.	.	.
!	!	!LO:LB:g=original	!	!	!	!	!	!	!	!
=12	=12	=12	=12	=12	=12	=12	=12	=12	=12	=12
8r	.	8b\	8dd\	4B\	vo-	vo-	4dd\	.	vo-	vo-
!LO:TX:t=P:problem:mixed beam	!	!	!	!	!	!	!	!	!	!
8e\L	.	4dd\	4bb\	.	.	.	.	.	.	.
8e\	.	.	.	4B\	-lun-	-lun-	4dd\	.	-lun-	-lun-
8E/J	.	8b\	8dd\	.	.	.	.	.	.	.
!	!	!	!LO:TX:t=P:problem:klamra łukowa, kropka zamiast cyfry	!	!	!	!LO:LB:g=original	!	!	!
!	!	!LO:MO:mod=24cc#LL(	!	!	!	!	!LO:MO:mod=8cc#	!	!	!
8AA/L	.	24cc#\LL	(24cc#\LL	8A\	-ta-	-ta-	(8cc#\	.	-ta-	-ta-
.	.	24b\	24b\	.	.	.	.	.	.	.
!	!	!LO:MO:mod=24aJJ)	!	!	!	!	!	!	!	!
.	.	24a\JJ	24a\JJ)	.	.	.	.	.	.	.
!	!	!LO:MO:mod=24ddLL(	!LO:TX:t=P:problem:klamra łukowa, kropka zamiast cyfry	!LO:MO:mod=8B	!	!	!LO:MO:mod=8dd	!	!	!
8BB/	.	24dd\LL	(24dd\LL	(8B\	-tes	-tes	8dd\)	.	tes	tes
.	.	24cc#\	24cc#\	.	.	.	.	.	.	.
!	!	!LO:MO:mod=24bJJ)	!	!	!	!	!	!	!	!
.	.	24b\JJ	24b\JJ)	.	.	.	.	.	.	.
!	!	!LO:MO:mod=24eeLL(	!LO:TX:t=P:problem:klamra łukowa, kropka zamiast cyfry	!LO:MO:mod=8c#	!	!	!	!	!	!
8C#/	.	24ee\LL	(24ee\LL	8c#\)	vo-	vo-	8ee\	.	vo-	vo-
.	.	24dd\	24dd\	.	.	.	.	.	.	.
!	!	!LO:MO:mod=24cc#JJ)	!	!	!	!	!	!	!	!
.	.	24cc#\JJ	24cc#\JJ)	.	.	.	.	.	.	.
!	!	!LO:MO:mod=16ff#LL(	!	!	!	!	!	!	!	!
8E/J	.	16ff#\LL	(16ff#\LL	8B\	-lun-	-lun-	8dd\	.	-lun-	-lun-
!	!	!LO:MO:mod=16gg#JJ)	!	!	!	!	!	!	!	!
.	.	16gg#X\JJ	16gg#X\JJ)	.	.	.	.	.	.	.
=13	=13	=13	=13	=13	=13	=13	=13	=13	=13	=13
8AA/L	.	8aa\L	8aa\L	8A\	-ta-	-ta-	8cc#\	.	-ta-	-ta-
!	!	!	!	!LO:MO:mod=4c#	!	!	!	!	!	!
8BB/	.	16gg#X\L	16gg#X\L	(4c#\	.	.	4ee\	.	.	.
.	.	16ff#\JJ	16ff#\JJ	.	.	.	.	.	.	.
8C#/	.	16ee\LL	16ee\LL	.	.	.	.	.	.	.
.	.	16dd\	16dd\	.	.	.	.	.	.	.
!	!	!	!	!LO:MO:mod=8B	!	!	!	!	!	!
8D/J	.	16cc#\	16cc#\	8B\)	-tes	-tes	8dd\	.	-tes	-tes
.	.	16b\JJ	16b\JJ	.	.	.	.	.	.	.
!LO:TX:t=P:problem:mixed beam	!	!	!	!	!	!	!	!	!	!
8E\L	.	4a/	4a/	4A/	e-	e-	4cc#\	.	e-	e-
8D\	.	.	.	.	.	.	.	.	.	.
!	!	!	!LO:TX:a:t=t:mod=	!	!	!	!	!	!	!
!	!	!	!LO:MO:mod=4bT	!	!	!	!	!	!	!
8E\	.	4bT/	4b/	4G#X/	.	.	4b\	.	.	.
8EE/J	.	.	.	.	.	.	.	.	.	.
=14	=14	=14	=14	=14	=14	=14	=14	=14	=14	=14
!LO:TX:a:t=Solo:mod=	!	!	!	!	!	!	!	!	!	!
4AA/	.	4a/	8a\L	4A\	-jus	-jus	4a\	.	-ius	-jus
.	.	.	16aa\L	.	.	.	.	.	.	.
.	.	.	16ff#\JJ	.	.	.	.	.	.	.
8r	.	8r	8.dd#\L	4r	.	.	4r	.	.	.
8F#\	.	8a/	.	.	.	.	.	.	.	.
.	.	.	(32ee\LL	.	.	.	.	.	.	.
.	.	.	32ff#\JJJ)	.	.	.	.	.	.	.
4G\	.	4b/	8ee\L	2r	.	.	2r	.	.	.
.	.	.	16ddn\L	.	.	.	.	.	.	.
.	.	.	16b\JJ	.	.	.	.	.	.	.
8r	.	8r	8.g#X/L	.	.	.	.	.	.	.
8E\	.	8g#X/	.	.	.	.	.	.	.	.
.	.	.	(32a/LL	.	.	.	.	.	.	.
.	.	.	32b/JJJ)	.	.	.	.	.	.	.
=15	=15	=15	=15	=15	=15	=15	=15	=15	=15	=15
8AA/L	.	16a\LL	16a\LL	1r	.	.	00r	.	.	.
.	.	16aa\	16aa\	.	.	.	.	.	.	.
8D/	.	16ff#\	16ff#\	.	.	.	.	.	.	.
.	.	16dd\JJ	16dd\JJ	.	.	.	.	.	.	.
8C#/	.	16ee\LL	16ee\LL	.	.	.	.	.	.	.
.	.	16cc#\	16cc#\	.	.	.	.	.	.	.
8D/J	.	16dd\	16dd\	.	.	.	.	.	.	.
.	.	16b\JJ	16b\JJ	.	.	.	.	.	.	.
!LO:TX:t=P:problem:mixed beam	!	!	!	!	!	!	!	!	!	!
8E\L	.	4a/	4a/	.	.	.	.	.	.	.
8E\	.	.	.	.	.	.	.	.	.	.
8EE/	.	4g#X/	4b/	.	.	.	.	.	.	.
8EE/J	.	.	.	.	.	.	.	.	.	.
!	!	!	!LO:PB:g=original	!	!	!	!	!	!	!
=16	=16	=16	=16	=16	=16	=16	=16	=16	=16	=16
8AA/L	.	4a/	4a/	4.A\	Con-	Con-	.	.	.	.
8BB/	.	.	.	.	.	.	.	.	.	.
8C#/	.	4r	4r	.	.	.	.	.	.	.
!	!	!	!	!LO:MO:mod=8c#	!	!	!	!	!	!
8D/J	.	.	.	(8c#\	-feſ-	-feſ-	.	.	.	.
!	!	!	!	!LO:MO:mod=16B	!	!	!	!	!	!
8E\L	.	2r	2r	16B\)	-si-	-si-	.	.	.	.
.	.	.	.	16G#X/	.	.	.	.	.	.
!	!	!	!	!LO:N:vis=4	!	!	!	!	!	!
8F#\	.	.	.	4.E/	-o	-o	.	.	.	.
!LO:SIC:v:s=8G#	!	!	!	!	!	!	!	!	!	!
8G\	.	.	.	.	.	.	.	.	.	.
8C#\J	.	.	.	.	.	.	.	.	.	.
!	!	!	!	!LO:LB:g=original	!	!	!	!	!	!
=17	=17	=17	=17	=17	=17	=17	=17	=17	=17	=17
8D\L	.	00r	00r	8f#\	et	et	.	.	.	.
!LO:MO:mod=8BB	!	!	!	!	!	!	!	!	!	!
8BB\J	.	.	.	8f#\	ma-	ma-	.	.	.	.
!LO:TX:t=P:problem:mixed beam	!	!	!	!	!	!	!	!	!	!
!LO:MO:mod=8E	!	!	!	!	!	!	!	!	!	!
8E\L	.	.	.	8e\	-gni-	-gni-	.	.	.	.
8EE/J	.	.	.	8d\	-fi-	-fi-	.	.	.	.
!LO:LB:g=original	!	!	!	!	!	!	!	!	!	!
!LO:TX:t=P:problem:mixed beam	!	!	!	!	!	!	!	!	!	!
8AA/L	.	.	.	16c#\	-cen-	-cen-	.	.	.	.
.	.	.	.	16B\	-ti-	-ti-	.	.	.	.
8A\	.	.	.	8A/	-a	-a	.	.	.	.
8G#X\	.	.	.	8d\	o-	o-	.	.	.	.
8A\J	.	.	.	8c#\	-pus	-pus	.	.	.	.
=18	=18	=18	=18	=18	=18	=18	=18	=18	=18	=18
8e\L	.	.	.	8c#\	e-	e-	.	.	.	.
8E\J	.	.	.	8B\	-jus	-jus	.	.	.	.
16E\LL	.	.	.	8d\	et	et	.	.	.	.
16F#\	.	.	.	.	.	.	.	.	.	.
!LO:SIC:v:s=16G#	!	!	!	!	!	!	!	!	!	!
16G\	.	.	.	8d\	jus-	jus-	.	.	.	.
16A\JJ	.	.	.	.	.	.	.	.	.	.
8B\L	.	.	.	4d\	-ti-	-ti-	.	.	.	.
8G#X\	.	.	.	.	.	.	.	.	.	.
8F#\	.	.	.	8d\	-ti-	-ti-	.	.	.	.
8E\J	.	.	.	8d\	-a	-a	.	.	.	.
=19	=19	=19	=19	=19	=19	=19	=19	=19	=19	=19
8B\L	.	.	.	4d\	e-	e-	0r	.	.	.
8G#X\	.	.	.	.	.	.	.	.	.	.
8F#\	.	.	.	4d\	-jus	-jus	.	.	.	.
8E\J	.	.	.	.	.	.	.	.	.	.
!LO:TX:t=P:problem:mixed beam	!	!	!	!	!	!	!	!	!	!
8A\L	.	.	.	4c#\	ma-	ma-	.	.	.	.
8AA/	.	.	.	.	.	.	.	.	.	.
8D/	.	.	.	8B\	-net	-net	.	.	.	.
8F#/J	.	.	.	8A\	in	in	.	.	.	.
!	!	!	!	!LO:LB:g=original	!	!	!	!	!	!
=20	=20	=20	=20	=20	=20	=20	=20	=20	=20	=20
8E\L	.	.	.	8G#X/	sae-	sae-	.	.	.	.
8D\	.	.	.	8A/	-cu-	-cu-	.	.	.	.
!	!	!	!	!LO:MO:mod=4B	!	!	!	!	!	!
8C#\	.	.	.	8B\	-lum	-lum	.	.	.	.
!	!	!	!	!LO:MO:mod=.	!	!	!	!	!	!
8D\J	.	.	.	4.A\	sae-	.	.	.	.	.
!LO:TX:t=P:problem:mixed beam	!	!	!	!LO:MO:null:mod=4A	!	!	!	!	!	!
8E\L	.	.	.	.	.	sae-	.	.	.	.
8D\	.	.	.	.	.	.	.	.	.	.
8E\	.	.	.	8.B\	-cu-	.	.	.	.	.
8EE/J	.	.	.	.	.	.	.	.	.	.
.	.	.	.	16B\	-li	-cu-	.	.	.	.
=21	=21	=21	=21	=21	=21	=21	=21	=21	=21	=21
!	!LO:DY:t=for	!	!	!	!	!	!	!	!	!
!	!LO:DY:a	!	!	!LO:MO:mod=8A	!	!	!	!	!	!
8AA/L	f	8cc#\	8aa\	4A\	Me-	-li	4cc#\	.	me-	me-
!	!	!	!	!LO:MO:null:mod=8A	!	!	!	!	!	!
8BB/	.	4a/	4cc#\	.	.	me-	.	.	.	.
8C#/	.	.	.	8A\	-mo-	-mo-	8cc#\	.	-mo-	-mo-
8D/J	.	16g#X/LL	16b\LL	16A\	-ri-	-ri-	16cc#\	.	-ri-	-ri-
.	.	16f#/JJ	16a\JJ	16A\	-am	-am	16cc#\	.	-am	-am
!	!	!	!LO:TX:a:t=h:mod=	!	!	!	!	!	!	!
!	!	!LO:LB:g=original	!LO:TX:t=P:problem:przekreślone gis	!	!	!	!	!	!	!
8E\L	.	8g#/	8b/	8G#X/	fe-	fe-	8b\	.	fe-	fe-
8F#\	.	4b\	4dd\	4.B\	-cit	-cit	8dd\	.	-cit	-cit
8G#X\	.	.	.	.	.	.	8dd\	.	mi-	mi-
8E\J	.	16a\LL	16cc#\LL	.	.	.	8dd\	.	-ra-	-ra-
.	.	16g#\JJ	16b\JJ	.	.	.	.	.	.	.
!	!	!	!	!	!	!	!LO:LB:g=original	!	!	!
=22	=22	=22	=22	=22	=22	=22	=22	=22	=22	=22
!	!	!	!	!LO:MO:mod=8A	!	!	!	!	!	!
8AA/L	.	16a\LL	16cc#\LL	8.A\	mi-	mi-	8cc#\	.	-bi-	-bi-
.	.	16cc#\	16ee\	.	.	.	.	.	.	.
!	!	!	!	!LO:MO:null:mod=8c#	!	!	!	!	!	!
8BB/	.	16ff#\	16aa\	.	.	-ra-	8ee\	.	-li-	-li-
!	!	!	!	!LO:MO:mod=.	!	!	!	!	!	!
.	.	16ee\JJ	16gg#X\JJ	8c#\	-ra-	.	.	.	.	.
!	!	!	!	!LO:MO:null:mod=16B	!	!	!	!	!	!
8C#/	.	16dd\LL	16ff#\LL	.	.	-bi-	8dd\	.	-um	-um
!	!	!	!	!LO:MO:mod=16B	!	!	!	!	!	!
.	.	16cc#\	16ee\	8B\	-bi-	-li-	.	.	.	.
!	!	!	!	!LO:MO:null:mod=16A	!	!	!	!	!	!
8D/J	.	16b\	16dd\	.	.	-um	8cc#\	.	su-	su-
!	!	!	!	!LO:TX:t=P:problem:niejasny zapis rytmiczny (przednutka albo skreślony dźwięk)	!	!	!	!	!	!
!	!	!	!	!LO:N:vis=8	!	!	!	!	!	!
.	.	16a\JJ	16cc#\JJ	16A/	-lium	su-	.	.	.	.
!LO:TX:t=P:problem:mixed beam	!	!	!LO:MO:mod=8cc#L	!	!	!	!	!	!	!
8E\L	.	16a\LL	8cc#|\L	8A/	suo-	-o-	8cc#\	.	-o-	-o-
.	.	16g#X\J	.	.	.	.	.	.	.	.
!	!	!LO:N:vis=16	!	!	!	!	!	!	!	!
8EE/J	.	8ee\J	16b\L	8G#X/	-rum	-rum	8b\	.	-rum	-rum
.	.	.	16ee\JJ	.	.	.	.	.	.	.
4r	.	4e/	4e/	4r	.	.	4r	.	.	.
=23	=23	=23	=23	=23	=23	=23	=23	=23	=23	=23
8BB/L	.	8dd\	8bb\	4B\	mi-	mi-	4dd\	.	mi-	mi-
8C#/	.	4b\	4dd\	.	.	.	.	.	.	.
!	!	!	!	!LO:LB:g=original	!	!	!	!	!	!
8D/	.	.	.	8B\	-se-	-se-	8dd\	.	-se-	-se-
8E/J	.	16a#X/LL	16cc#\LL	8B\	-ri-	-ri-	8dd\	.	-ri-	-ri-
.	.	16g#X/JJ	16b\JJ	.	.	.	.	.	.	.
8F#\L	.	8a#\	8cc#\	8A#X\	-cors	-cors	8cc#\	.	-cors	-cors
8G#X\	.	4cc#\	4ee\	8c#\	et	et	8ee\	.	et	et
8A#X\	.	.	.	8c#\	mi-	mi-	8ee\	.	mi-	mi-
8F#\J	.	16b\LL	16dd\LL	8c#\	-se-	-se-	8ee\	.	-se-	-se-
.	.	16a#\JJ	16cc#\JJ	.	.	.	.	.	.	.
=24	=24	=24	=24	=24	=24	=24	=24	=24	=24	=24
8BB/L	.	4b\	24dd\LL	8B\	-ra-	-ra-	8dd\	.	-ra-	-ra-
.	.	.	24ff#\	.	.	.	.	.	.	.
.	.	.	24ee\	.	.	.	.	.	.	.
8C#/	.	.	24dd\	8B\	-tor	-tor	8dd\	.	-tor	-tor
.	.	.	24cc#\	.	.	.	.	.	.	.
.	.	.	24b\JJ	.	.	.	.	.	.	.
8D/	.	8dd\L	8bb\L	8B\	Do-	Do-	8dd\	.	Do-	Do-
8E/J	.	8b\J	8dd\J	8B\	-mi-	-mi-	8dd\	.	-mi-	-mi-
!LO:TX:t=P:problem:mixed beam	!	!	!	!	!	!	!	!	!	!
.	.	8qqcc#/	8qqee/	.	.	.	.	.	.	.
8F#\L	.	8b\L	8dd\L	8B\L	-nus	-nus	8dd\L	.	-nus	-nus
8FF#/	.	8a#X\J	8cc#\J	8A#X\J	.	.	8cc#\J	.	.	.
8F#\	.	24a#/LL	24a#X\LL	8c#\	es-	es-	8ee\	.	es-	es-
!	!	!LO:SIC:v:s=24g#	!	!	!	!	!	!	!	!
.	.	24g/	24g#X\	.	.	.	.	.	.	.
.	.	24f#/JJ	24f#\JJ	.	.	.	.	.	.	.
8F#\J	.	24a#/LL	24cc#\LL	8c#\	-cam	-cam	8ee\	.	-cam	-cam
!	!	!LO:SIC:v:s=24g#	!	!	!	!	!	!	!	!
.	.	24g/	24b\	.	.	.	.	.	.	.
.	.	24f#/JJ	24a#X\JJ	.	.	.	.	.	.	.
!LO:LB:g=original	!	!	!	!	!	!	!LO:LB:g=original	!	!	!
=25	=25	=25	=25	=25	=25	=25	=25	=25	=25	=25
8F#\L	.	4cc#\	4ee\	8c#\	es-	de-	8ee\	.	De-	de-
8F#\	.	.	.	8c#\	-cam	-dit	8ee\	.	-dit	-dit
8F#\	.	24a#X\LL	24cc#\LL	8c#\	de-	es-	8ee\	.	es-	es-
.	.	24g#X\	24b\	.	.	.	.	.	.	.
.	.	24f#\JJ	24a#X\JJ	.	.	.	.	.	.	.
8F#\J	.	24cc#\LL	24ee\LL	8c#\	-dit	-cam	8ee\	.	-cam	-cam
.	.	24b\	24dd\	.	.	.	.	.	.	.
.	.	24a#X\JJ	24cc#\JJ	.	.	.	.	.	.	.
!	!	!	!LO:LB:g=original	!	!	!	!	!	!	!
8E\L	.	4.ee\	4.gg\	4c#\	de-	de-	4ee\	.	De-	de-
16e\L	.	.	.	.	.	.	.	.	.	.
16d\JJ	.	.	.	.	.	.	.	.	.	.
16c#\LL	.	.	.	8c#\	-dit	-dit	8ee\	.	-dit	-dit
16B\	.	.	.	.	.	.	.	.	.	.
16A#X\	.	16dd\LL	16ff#\LL	8c#\	ti-	ti-	8ee\	.	ti-	ti-
16F#\JJ	.	16cc#\JJ	16ee\JJ	.	.	.	.	.	.	.
!	!	!	!	!LO:LB:g=original	!	!	!	!	!	!
=26	=26	=26	=26	=26	=26	=26	=26	=26	=26	=26
!LO:TX:t=P:problem:mixed beam	!	!	!	!	!	!	!	!	!	!
8B\L	.	24dd\LL	24dd\LL	4B\	-men-	-men-	4dd\	.	-men-	-men-
.	.	24ff#\	24ff#\	.	.	.	.	.	.	.
.	.	24bb\JJ	24bb\JJ	.	.	.	.	.	.	.
8E\	.	24dd\LL	24dd\LL	.	.	.	.	.	.	.
.	.	24cc#\	24cc#\	.	.	.	.	.	.	.
.	.	24b\JJ	24b\JJ	.	.	.	.	.	.	.
8F#\	.	4cc#t\	4cc#t\	8A#X\	-ti-	-ti-	8cc#\	.	-ti-	-ti-
8FF#/J	.	.	.	8A#\	-bus	-bus	8cc#\	.	-bus	-bus
!	!	!LO:LB:g=original	!	!	!LO:SIC:v:s=se	!LO:SIC:v:s=se	!	!	!	!
8BB/L	.	16dd\LL	16dd\LL	4B\	sae	sae	4b\	.	ſe	ſe
.	.	16bb\	16bb\	.	.	.	.	.	.	.
8E/	.	16bb\	16bb\	.	.	.	.	.	.	.
.	.	16bb\JJ	16bb\JJ	.	.	.	.	.	.	.
8D/	.	16bb\LL	16bb\LL	4r	.	.	4r	.	.	.
.	.	16bb\	16bb\	.	.	.	.	.	.	.
8C#/J	.	16bb\	16bb\	.	.	.	.	.	.	.
.	.	16bb\JJ	16bb\JJ	.	.	.	.	.	.	.
=27	=27	=27	=27	=27	=27	=27	=27	=27	=27	=27
8BB/L	.	8.bb\L	8.bb\L	1r	.	.	1r	.	.	.
8C#/	.	.	.	.	.	.	.	.	.	.
.	.	32aa#X\LL	32aa#X\LL	.	.	.	.	.	.	.
.	.	32gg\JJJ	32gg\JJJ	.	.	.	.	.	.	.
8D/	.	8ff#\L	8ff#\L	.	.	.	.	.	.	.
8E/J	.	8ee\J	8ee\J	.	.	.	.	.	.	.
*	*	*tuplet	*	*	*	*	*	*	*	*
!LO:TX:t=P:problem:mixed beam	!	!LO:TUP:a	!	!	!	!	!	!	!	!
8F#\L	.	24dd\LL	24dd\LL	.	.	.	.	.	.	.
.	.	24ff#\	24ff#\	.	.	.	.	.	.	.
.	.	24ee\	24ee\	.	.	.	.	.	.	.
8F#\	.	24dd\	24dd\	.	.	.	.	.	.	.
.	.	24cc#\	24cc#\	.	.	.	.	.	.	.
.	.	24b\JJ	24b\JJ	.	.	.	.	.	.	.
8FF#/	.	4cc#t\	4cc#\	.	.	.	.	.	.	.
8FF#/J	.	.	.	.	.	.	.	.	.	.
*	*	*Xtuplet	*	*	*	*	*	*	*	*
=28	=28	=28	=28	=28	=28	=28	=28	=28	=28	=28
!	!LO:DY:t=piano	!	!	!	!	!	!	!	!	!
!	!LO:DY:a	!	!	!	!	!	!	!	!	!
8BB/L	p	8b\L	8b\L	4B\	me-	me-	4dd\	.	me-	me-
8BB/	.	8b\	8dd\	.	.	.	.	.	.	.
8BB/	.	8b\	8dd\	4B\	-mor	-mor	4dd\	.	-mor	-mor
8BB/J	.	8b\J	8dd\J	.	.	.	.	.	.	.
8F#\L	.	8b/L	8dd\L	8B\	e-	e-	8dd\	.	e-	e-
!	!	!	!	!LO:SIC:v:s=8A#	!	!	!	!	!	!
8F#\	.	8a#X/	8cc#\	8A\	-rit	-rit	8cc#\	.	-rit	-rit
8F#\	.	8a#/	8cc#\	4r	.	.	4r	.	.	.
8F#\J	.	8a#/J	8cc#\J	.	.	.	.	.	.	.
=29	=29	=29	=29	=29	=29	=29	=29	=29	=29	=29
8F#\L	.	8cc#\L	8ee\L	4c#\	in	in	4ee\	.	in	in
8F#\	.	8cc#\	8ee\	.	.	.	.	.	.	.
8F#\	.	8cc#\	8ee\	8c#\	Sae-	sae-	8ee\	.	se-	sae-
8F#\J	.	8cc#\J	8ee\J	16B\LL	-cu-	-cu-	16dd\LL	.	-cu-	-cu-
.	.	.	.	16A#X\JJ	.	.	16cc#\JJ	.	.	.
!	!	!	!	!	!	!	!LO:LB:g=original	!	!	!
8BB/L	.	16b/LL	16dd\LL	4B\	-lum	-lum	4dd\	.	-lum	-lum
.	.	16f#/	16dd\	.	.	.	.	.	.	.
8D/	.	16e/	16cc#\	.	.	.	.	.	.	.
.	.	16f#/JJ	16dd\JJ	.	.	.	.	.	.	.
8F#/	.	16dd\LL	16ff#\LL	4r	.	.	4r	.	.	.
.	.	16ff#\	16aa\	.	.	.	.	.	.	.
8A/J	.	16ee\	16gg\	.	.	.	.	.	.	.
.	.	16cc#\JJ	16ee\JJ	.	.	.	.	.	.	.
=30	=30	=30	=30	=30	=30	=30	=30	=30	=30	=30
8D\L	.	4dd\	4ff#\	4d\	tes-	tes-	4ff#\	.	tes-	tes-
16D\L	.	.	.	.	.	.	.	.	.	.
16E\JJ	.	.	.	.	.	.	.	.	.	.
!LO:TX:t=P:problem:mixed beam	!	!	!	!	!	!	!	!	!	!
16F#\LL	.	4dd\	4ff#\	4d\	-ta-	-ta-	4ff#\	.	-ta-	-ta-
16G\	.	.	.	.	.	.	.	.	.	.
16A\	.	.	.	.	.	.	.	.	.	.
16AA/JJ	.	.	.	.	.	.	.	.	.	.
!LO:TX:t=P:problem:mixed beam	!	!	!	!	!	!	!	!	!	!
8D/L	.	8dd\L	8ff#\L	8d\	-men-	-men-	8ff#\	.	-men-	-men-
8d\	.	16cc#\L	16ee\L	16c#\LL	-ti	-ti	16ee\LL	.	-ti	-ti
.	.	16dd\JJ	16ff#\JJ	16d\JJ	.	.	16ff#\JJ	.	.	.
.	.	8qqff#/	8qqaa/	.	.	.	.	.	.	.
8G\	.	8ee\L	8gg\L	8e\L	su-	su-	8gg\L	.	su-	su-
8A\J	.	16dd\L	16ff#\L	16d\L	.	.	16ff#\L	.	.	.
.	.	16cc#\JJ	16ee\JJ	16c#\JJ	.	.	16ee\JJ	.	.	.
!	!	!	!LO:LB:g=original	!LO:LB:g=original	!	!	!	!	!	!
=31	=31	=31	=31	=31	=31	=31	=31	=31	=31	=31
!	!	!	!LO:N:vis=16	!	!	!	!	!	!	!
4D\	.	8dd\L	8ff#\LL	8d\	-i	-i	8ff#\	.	-i	-i
!	!	!	!LO:N:vis=16	!	!	!	!	!	!	!
.	.	8dd\	8ff#\	8d\	vir-	vir-	8ff#\	.	vir-	vir-
!	!	!	!LO:N:vis=16	!	!	!	!	!	!	!
4r	.	8cc#\	8ee\	8c#\	-tu-	-tu-	8ee\	.	-tu-	-tu-
!	!	!	!LO:N:vis=16	!	!	!	!	!	!	!
.	.	8b\J	8dd\JJ	8B\	-tem	-tem	8dd\	.	-tem	-tem
4A\	.	8a/L	8cc#\L	8A/	o-	o-	8cc#\	.	o-	o-
.	.	8g/	8b\	8G/	-pe-	-pe-	8b\	.	-pe-	-pe-
4r	.	8f#/	8a\	8F#/	-rum	-rum	8a\	.	-rum	-rum
.	.	8e/J	8g\J	8E/	Su-	su-	8g\	.	su-	su-
!LO:LB:g=original	!	!	!	!	!	!	!	!	!	!
=32	=32	=32	=32	=32	=32	=32	=32	=32	=32	=32
8r	.	4e/	4g/	4E/	-o-	-o-	4g\	.	-o-	-o-
8AA/	.	.	.	.	.	.	.	.	.	.
8D\L	.	8d/	8f#/L	8D/	-rum	-rum	8f#/	.	-rum	-rum
8F#\J	.	8r	8a/J	8r	.	.	8a\	.	a-	a-
4G\	.	2r	4b\	2r	.	.	4b\	.	-nun-	-nun-
4A\	.	.	4cc#\	.	.	.	4cc#\	.	-ti-	-ti-
!	!	!LO:LB:g=original	!	!	!	!	!	!	!	!
=33	=33	=33	=33	=33	=33	=33	=33	=33	=33	=33
!	!	!LO:N:vis=4	!	!	!	!	!	!	!	!
4D\	.	2r	16dd\LL	4r	.	.	16dd\LL	.	-a-	-a-
.	.	.	16cc#\JJ	.	.	.	16cc#\JJ	.	.	.
.	.	.	4dd\	.	.	.	8dd\	.	-bit	-bit
!	!	!	!	!	!	!	!LO:LB:g=original	!	!	!
4r	.	.	.	8r	.	.	8r	.	.	.
.	.	.	8cc#\	8A/	a-	a-	8cc#\	.	a-	a-
4G\	.	8r	4dd\	4B\	-nun-	-nun-	4dd\	.	-nun-	-nun-
.	.	8a/	.	.	.	.	.	.	.	.
4A\	.	8b\L	4ee\	4c#\	-ti-	-ti-	4ee\	.	-ti-	-ti-
.	.	8cc#\J	.	.	.	.	.	.	.	.
=34	=34	=34	=34	=34	=34	=34	=34	=34	=34	=34
4D\	.	8dd\L	8ff#\L	8d\	-a-	-a-	8ff#\	.	-a-	-a-
.	.	16cc#\L	16ee\L	16c#\LL	-bit	-bit	16ee\LL	.	-bit	-bit
.	.	16dd\JJ	16ff#\JJ	16d\JJ	.	.	16ff#\JJ	.	.	.
4r	.	8ee\L	8gg\L	8e\	po-	po-	8gg\	.	po-	po-
.	.	16dd\L	16ff#\L	16d\	-pu-	-pu-	16ff#\	.	-pu-	-pu-
.	.	16cc#\JJ	16ee\JJ	16c#\	-lo	-lo	16ee\	.	-lo	-lo
!LO:TX:t=P:problem:mixed beam	!	!	!	!	!	!	!	!	!	!
8A\L	.	4dd\	4ff#\	4d\	su-	su-	4ff#\	.	su-	su-
8A\	.	.	.	.	.	.	.	.	.	.
!	!	!	!	!LO:LB:g=original	!	!	!	!	!	!
8AA/	.	4cc#\	4ee\	4c#\	.	.	4ee\	.	.	.
8AA/J	.	.	.	.	.	.	.	.	.	.
=35	=35	=35	=35	=35	=35	=35	=35	=35	=35	=35
!	!LO:DY:t=for	!	!	!	!	!	!	!	!	!
!	!LO:DY:a	!	!	!	!	!	!	!	!	!
8D\L	f	16dd\LL	16dd\LL	4d\	-o	-o	4dd\	.	-o	-o
.	.	16ddd\	16ddd\	.	.	.	.	.	.	.
8D\	.	16ccc#\	16ccc#\	.	.	.	.	.	.	.
.	.	16bb\JJ	16bb\JJ	.	.	.	.	.	.	.
8D\	.	16aa\LL	16aa\LL	8d\	ut	ut	8ff#\	.	ut	ut
.	.	16gg\	16gg\	.	.	.	.	.	.	.
8D\J	.	16ff#\	16ff#\	8d\	det	det	8ff#\	.	det	det
.	.	16ee\JJ	16ee\JJ	.	.	.	.	.	.	.
!LO:TX:t=P:problem:mixed beam	!	!	!	!	!	!	!	!	!	!
16D/LL	.	16dd\LL	16dd\LL	8d\	il-	il-	8ff#\	.	il-	il-
16d\	.	16dd\	16dd\	.	.	.	.	.	.	.
16c#\	.	16cc#\	16cc#\	16d\	-lis	-lis	16ff#\	.	-lis	-lis
16B\JJ	.	16b\JJ	16b\JJ	16d\	hae-	hae-	16ff#\	.	he-	he-
16A\LL	.	16a/LL	16a/LL	8d\	-re-	-re-	8ff#\	.	-re-	-re-
16G\	.	16g/	16g/	.	.	.	.	.	.	.
16F#\	.	16f#/	16f#/	8d\	-di-	-di-	8ff#\	.	-di-	-di-
16E\JJ	.	16e/JJ	16e/JJ	.	.	.	.	.	.	.
=36	=36	=36	=36	=36	=36	=36	=36	=36	=36	=36
!LO:TX:t=P:problem:mixed beam	!	!	!	!	!	!	!	!	!	!
8D\L	.	16d/LL	16d/LL	8d\	-ta-	-ta-	8ff#\	.	-ta-	-ta-
.	.	16f#/	16f#/	.	.	.	.	.	.	.
8D\	.	16a/	16a/	8d\	-tem	-tem	8ff#\	.	-tem	-tem
.	.	16dd/JJ	16dd/JJ	.	.	.	.	.	.	.
!	!	!	!	!	!	!	!LO:LB:g=original	!	!	!
8A\	.	16a\LL	16a\LL	8c#\	gen-	gen-	8ee\	.	gen-	gen-
.	.	16cc#\	16cc#\	.	.	.	.	.	.	.
8AA/J	.	16ee\	16ee\	8c#\	-ti-	-ti-	8ee\	.	-ti-	-ti-
.	.	16gg\JJ	16gg\JJ	.	.	.	.	.	.	.
4D\	.	8ff#\L	8ff#\L	4d\	-um	-um	4ff#\	.	-um	-um
.	.	8dd\J	8dd\J	.	.	.	.	.	.	.
!	!	!	!	!	!	!	!	!	!LO:SIC:v:s=o-	!LO:SIC:v:s=o-
8F#\L	.	16ccn\LL	16ccn\LL	8A/	o-	o-	8ccn\	.	po-	po-
.	.	16ff#\	16ff#\	.	.	.	.	.	.	.
8D\J	.	16aa\	16aa\	8A/	-pe-	-pe-	8cc\	.	-pe-	-pe-
.	.	16cc\JJ	16cc\JJ	.	.	.	.	.	.	.
!	!	!	!LO:LB:g-original	!	!	!	!	!	!	!
=37	=37	=37	=37	=37	=37	=37	=37	=37	=37	=37
4G\	.	8b\	8b\L	4G/	-ra	-ra	8b\	.	-ra	-ra
.	.	4dd\	8dd\J	.	.	.	4dd\	.	.	ma-
8B\L	.	.	16dd\LL	8G/	ma-	ma-	.	.	.	.
.	.	.	16gg\	.	.	.	.	.	.	.
8A\J	.	8cc#\	16ff#\	16F#/LL	-nu-	-nu-	8ccn\	.	ma-	.
.	.	.	16aa\JJ	16A/JJ	.	.	.	.	.	.
4G\	.	8b\	8gg\L	4G/	-um	-um	8b\	.	-num	-num
.	.	4dd\	8dd\J	.	.	.	4dd\	.	.	e-
8B\L	.	.	16dd\LL	8G/L	e-	e-	.	.	.	.
.	.	.	16gg\	.	.	.	.	.	.	.
8A\J	.	8cc#\	16ff#\	16F#/L	.	.	8cc\	.	e-	.
.	.	.	16aa\JJ	16A/JJ	.	.	.	.	.	.
!	!	!LO:LB:g=original	!	!LO:LB:g=original	!	!	!	!	!	!
=38	=38	=38	=38	=38	=38	=38	=38	=38	=38	=38
!	!	!LO:TX:t=P:problem:mixed beam	!LO:TX:t=P:problem:mixed beam	!	!	!	!	!	!	!
4G\	.	16gg\LL	16gg\LL	4G/	-ius	-ius	4b\	.	-ius	-ius
.	.	16g/	16g/	.	.	.	.	.	.	.
.	.	16b/	16b/	.	.	.	.	.	.	.
.	.	16dd/JJ	16dd/JJ	.	.	.	.	.	.	.
8B\L	.	16gg\LL	16gg\LL	8B\	ve-	ve-	8dd\	.	ve-	ve-
.	.	16bb\	16bb\	.	.	.	.	.	.	.
8G\J	.	16dd\	16dd\	8B\	-ri-	-ri-	8dd\	.	-ri-	-ri-
.	.	16ffn\JJ	16ffn\JJ	.	.	.	.	.	.	.
4cn\	.	8ee\L	8ee\L	4G/	-tas	-tas	4ee\	.	-tas	-tas
!	!	!LO:SIC:v:s=16ff#L	!	!	!	!	!	!	!	!
.	.	16ff\L	16ff#X\L	.	.	.	.	.	.	.
.	.	16gg\JJ	16gg\JJ	.	.	.	.	.	.	.
!	!	!	!	!LO:SIC:v:s=8c	!	!	!	!	!	!
4A\	.	8aa\L	8aa\L	8c#\	et	et	8ee\	.	et	et
!	!	!	!	!LO:SIC:v:s=8c	!	!	!	!	!	!
.	.	16bb\L	16bb\L	8c#\	ju-	ju-	8ee\	.	iu-	ju-
.	.	16cccn\JJ	16cccn\JJ	.	.	.	.	.	.	.
=39	=39	=39	=39	=39	=39	=39	=39	=39	=39	=39
!LO:TX:a:t=Solo:mod=	!	!	!	!	!	!	!	!	!	!
8d\L	.	8ff#\L	8ff#\L	4A\	-di-	-di-	4ff#\	.	-di-	-di-
!LO:SIC:v:s=8c	!	!	!	!	!	!	!	!	!	!
8c#\	.	16ee\L	16ee\L	.	.	.	.	.	.	.
.	.	16dd\JJ	16dd\JJ	.	.	.	.	.	.	.
8B\	.	8gg\L	8gg\L	8B\L	-ci-	.	8gg\L	.	.	.
!LO:SIC:v:s=8cJ	!	!LO:SIC:v:s=8ccJ	!LO:SIC:v:s=8ccJ	!	!	!	!LO:SIC:v:s=8ccJ	!	!	!
8c#\J	.	8cc#\J	8cc#\J	8A\J	.	.	8cc#\J	.	.	.
!LO:TX:t=P:problem:mixed beam	!	!	!	!	!	!	!	!	!	!
8d\L	.	4b/	4b\	4G/	.	.	4b\	.	.	.
8d\	.	.	.	.	.	.	.	.	.	.
8D/	.	4a/	4a\	4F#/	.	-ci-	4a\	.	-ci-	-ci-
8D/J	.	.	.	.	.	.	.	.	.	.
!LO:LB:g=original	!	!	!	!	!	!	!LO:LB:g=original	!	!	!
=40	=40	=40	=40	=40	=40	=40	=40	=40	=40	=40
!	!	!LO:TX:t=P:problem:mixed beam	!LO:TX:t=P:problem:mixed beam	!	!	!	!	!	!	!
8G\L	.	16g/LL	16g/LL	4G/	-um	-um	4e/	.	-um	-um
.	.	16gg\	16gg\	.	.	.	.	.	.	.
8cn\	.	16gg\	16gg\	.	.	.	.	.	.	.
.	.	16gg\JJ	16gg\JJ	.	.	.	.	.	.	.
8B\	.	16gg\LL	16gg\LL	4r	.	.	4r	.	.	.
.	.	16gg\	16gg\	.	.	.	.	.	.	.
8A\J	.	16gg\	16gg\	.	.	.	.	.	.	.
.	.	16gg\JJ	16gg\JJ	.	.	.	.	.	.	.
8G\L	.	8.ggT\L	8.ggT\L	2r	.	.	2r	.	.	.
8A\	.	.	.	.	.	.	.	.	.	.
.	.	32ff#\LL	32ff#\LL	.	.	.	.	.	.	.
.	.	32ee\JJJ	32ee\JJJ	.	.	.	.	.	.	.
8B\	.	8dd\L	8dd\L	.	.	.	.	.	.	.
!	!	!LO:SIC:v:s=8ccJ	!LO:SIC:v:s=8ccJ	!	!	!	!	!	!	!
8c\J	.	8cc#\J	8cc#\J	.	.	.	.	.	.	.
=41	=41	=41	=41	=41	=41	=41	=41	=41	=41	=41
!LO:TX:t=P:problem:mixed beam	!	!	!	!	!	!	!	!	!	!
8d\L	.	24b\LL	24b\LL	2r	.	.	00r	.	.	.
.	.	24dd\	24dd\	.	.	.	.	.	.	.
!	!	!LO:SIC:v:s=24cc	!LO:SIC:v:s=24cc	!	!	!	!	!	!	!
.	.	24cc#\	24cc#\	.	.	.	.	.	.	.
!LO:SIC:v:s=8c	!	!	!	!	!	!	!	!	!	!
8c#\	.	24b\	24b\	.	.	.	.	.	.	.
.	.	24a\	24a\	.	.	.	.	.	.	.
.	.	24g\JJ	24g\JJ	.	.	.	.	.	.	.
!	!	!	!LO:MO:mod=4aT	!	!	!	!	!	!	!
8d\	.	4aT/	4a/	.	.	.	.	.	.	.
8D/J	.	.	.	.	.	.	.	.	.	.
4G\	.	4g/	4g/	8r	.	.	.	.	.	.
.	.	.	.	8G/	Fi-	Fi-	.	.	.	.
8r	.	4r	4r	4g\	-de-	.	.	.	.	.
!LO:SIC:v:s=8c	!	!	!	!	!	!	!	!	!	!
8c#\	.	.	.	.	.	.	.	.	.	.
!	!	!	!LO:LB:g-original	!	!	!	!	!	!	!
=42	=42	=42	=42	=42	=42	=42	=42	=42	=42	=42
4d\	.	2r	2r	8g\L	.	-de-	.	.	.	.
.	.	.	.	16f#\L	.	.	.	.	.	.
.	.	.	.	16e\JJ	.	.	.	.	.	.
4D/	.	.	.	8d\	-li-	-li-	.	.	.	.
!	!	!	!	!LO:SIC:v:s=8c	!	!	!	!	!	!
.	.	.	.	8c#\	-a	-a	.	.	.	.
8G\L	.	8r	8r	16B\	o-	o-	.	.	.	.
.	.	.	.	16A\	-mni-	-mni-	.	.	.	.
8G\	.	8b\L	8dd\L	8G/	-a	-a	.	.	.	.
!	!	!	!	!LO:LB:g=original	!	!	!	!	!	!
8B\	.	8b\	8dd\	8r	.	.	.	.	.	.
8G\J	.	8b\J	8dd\J	8d\	man-	man-	.	.	.	.
=43	=43	=43	=43	=43	=43	=43	=43	=43	=43	=43
*2\right	*	*	*	*	*	*	*	*	*	*
!LO:MO:mod=*	!	!	!	!	!	!	!	!	!	!
*tremolo	*	*	*	*	*	*	*	*	*	*
!LO:SIC:v:s=8CL	!	!	!	!	!	!	!	!	!	!
8C#/L	.	8g/L	8ee\L	8e\	-da-	-da-	.	.	.	.
!LO:SIC:v:s=8C	!	!	!	!	!	!	!	!	!	!
8C#/	.	8g/	8ee\	4g\	.	.	.	.	.	.
!LO:SIC:v:s=8C	!	!	!	!	!	!	!	!	!	!
8C#/	.	8g/	8ee\	.	.	.	.	.	.	.
!LO:SIC:v:s=8CJ	!	!	!	!	!	!	!	!	!	!
8C#/J	.	8g/J	8ee\J	8e\	-ta	-ta	.	.	.	.
!	!	!LO:SIC:v:s=8ccL	!	!	!	!	!	!	!	!
8G\L	.	8cc#\L	8ee\L	16e\LL	e-	e-	.	.	.	.
!	!	!	!	!LO:SIC:v:s=16cJJ	!	!	!	!	!	!
.	.	.	.	16c#\JJ	.	.	.	.	.	.
8G\	.	8b\	8dd\	4.d\	-jus	-jus	.	.	.	.
8G\	.	8b\	8dd\	.	.	.	.	.	.	.
8G\J	.	8b\J	8dd\J	.	.	.	.	.	.	.
!	!	!LO:LB:g=original	!	!	!	!	!	!	!	!
=44	=44	=44	=44	=44	=44	=44	=44	=44	=44	=44
8D\L	.	8a/L	8ccn\L	8cn\	Con-	con-	.	.	.	.
8D\	.	8a/	8cc\	4a\	-fir-	.	.	.	.	.
8D\	.	8a/	8cc\	.	.	.	.	.	.	.
8D\J	.	8a/J	8cc\J	8c\	-ma-	-fir-	.	.	.	.
*Xtremolo	*	*	*	*	*	*	*	*	*	*
!LO:TX:t=P:problem:mixed beam	!	!	!	!	!	!	!	!	!	!
8D\L	.	8a/L	8cc\L	16c\LL	-ta	-ma-	.	.	.	.
.	.	.	.	16A\JJ	.	.	.	.	.	.
8G\	.	8g/	8b\	4B\	.	-ta	.	.	.	.
8G\	.	8g/	8b\	.	.	.	.	.	.	.
8GG/J	.	8b/J	8dd\J	8d\	in	in	.	.	.	.
=45	=45	=45	=45	=45	=45	=45	=45	=45	=45	=45
4G\	.	8b/	8dd\	16g\LL	Sae-	sae-	0r	.	.	.
.	.	.	.	16f#\JJ	.	.	.	.	.	.
.	.	4a/	4ccn\	16e\	-cu-	-cu-	.	.	.	.
.	.	.	.	16d\	-lum	-lum	.	.	.	.
8r	.	.	.	8cn\	Sae-	sae-	.	.	.	.
8G\	.	8g/	8b\	8B\	-cu-	-cu-	.	.	.	.
!LO:TX:t=P:problem:mixed beam	!	!	!	!	!	!	!	!	!	!
8d\L	.	8f#/L	8a/L	4A\	-li	-li	.	.	.	.
8D/	.	8f#/	8a/	.	.	.	.	.	.	.
8D/	.	8f#/	8a/	4r	.	.	.	.	.	.
8D/J	.	8f#/J	8a/J	.	.	.	.	.	.	.
=46	=46	=46	=46	=46	=46	=46	=46	=46	=46	=46
4D\	.	8r	8r	8A\	fac-	fac-	.	.	.	.
!	!	!	!	!LO:LB:g=original	!	!	!	!	!	!
.	.	8f#/L	8a\L	4B\	-ta	-ta	.	.	.	.
!	!	!	!LO:MO:mod=(8b	!	!	!	!	!	!	!
4r	.	(8g/	8b\	.	.	.	.	.	.	.
!	!	!	!LO:MO:mod=8ccJ)	!	!	!	!	!	!	!
.	.	8a/J)	8ccn\J	8cn\	in	in	.	.	.	.
4G\	.	8r	8r	8B\	ve-	ve-	.	.	.	.
.	.	8b\L	8dd\L	4d\	.	.	.	.	.	.
!	!	!LO:MO:mod=(8a	!LO:MO:mod=(8cc	!	!	!	!	!	!	!
4r	.	8a\	8ccn\	.	.	.	.	.	.	.
!	!	!LO:MO:mod=8gJ)	!LO:MO:mod=8bJ)	!	!	!	!	!	!	!
.	.	8g\J	8b\J	8g\	-ri-	-ri-	.	.	.	.
=47	=47	=47	=47	=47	=47	=47	=47	=47	=47	=47
4D\	.	8r	8r	8A\	-ta-	-ta-	1r	.	.	.
.	.	8f#/L	8a\L	4B\	-te	-te	.	.	.	.
!	!	!	!LO:MO:mod=(8b	!	!	!	!	!	!	!
4r	.	(8g/	8b\	.	.	.	.	.	.	.
!	!	!	!LO:SIC:v:s=8ccJ)	!LO:SIC:v:s=8c	!	!	!	!	!	!
.	.	8a/J)	8cc#\J	8c#\	et	et	.	.	.	.
4G\	.	8r	8r	8B\	ae-	ae-	.	.	.	.
.	.	8b\L	8dd\L	4d\	.	.	.	.	.	.
!	!	!LO:MO:mod=(8a	!LO:MO:mod=(8cc	!	!	!	!	!	!	!
8r	.	8a\	8ccn\	.	.	.	.	.	.	.
!	!	!LO:MO:mod=8gJ)	!LO:MO:mod=8bJ)	!	!	!	!	!	!	!
8GG/	.	8g\J	8b\J	8g\	-qui-	-qui-	.	.	.	.
!LO:LB:g=original	!	!	!	!	!	!	!	!	!	!
=48	=48	=48	=48	=48	=48	=48	=48	=48	=48	=48
!LO:TX:t=P:problem:mixed beam	!	!	!	!	!	!	!	!	!	!
8D\L	.	4g/	4b/	8B\L	-ta-	-ta-	2r	.	.	.
8D\	.	.	.	16A\L	.	.	.	.	.	.
.	.	.	.	16G\JJ	.	.	.	.	.	.
8DD/	.	4f#t/	4aT/	4A\	-te	.	.	.	.	.
8DD/J	.	.	.	.	.	.	.	.	.	.
!LO:TX:t=P:problem:mixed beam	!	!LO:TX:t=P:problem:mixed beam	!LO:TX:t=P:problem:mixed beam	!	!	!	!	!	!	!
8GG/L	.	8g/L	8g/L	8G,/	.	-te	8r	.	.	.
8G\	.	16gg\L	16bb\L	8B\	Re-	Re-	8b\	.	re-	Re-
.	.	16gg\JJ	16bb\JJ	.	.	.	.	.	.	.
8G\	.	16dd\LL	16gg\LL	8B\	-dem-	-dem-	8b\	.	-dem-	-dem-
.	.	16dd\	16gg\	.	.	.	.	.	.	.
8G\J	.	16b\	16dd\	8B\	-pti-	-pti-	8b\	.	-pti-	-pti-
.	.	16b\JJ	16dd\JJ	.	.	.	.	.	.	.
!	!	!	!LO:LB:g-original	!	!	!	!	!	!	!
=49	=49	=49	=49	=49	=49	=49	=49	=49	=49	=49
*tremolo	*	*	*	*	*	*	*	*	*	*
!	!	!LO:TX:t=P:problem:mixed beam	!	!	!	!	!	!	!	!
8G\L	.	16g/LL	16b\LL	8B\	-o-	-o-	8b\	.	-o-	-o-
.	.	16g/	16b\	.	.	.	.	.	.	.
8G\	.	16gg\	16bb\	8B\	-nem	-nem	8b\	.	-nem	-nem
.	.	16gg\JJ	16bb\JJ	.	.	.	.	.	.	.
8G\	.	16dd\LL	16gg\LL	8B\	mi-	mi-	8b\	.	mi-	mi-
.	.	16dd\	16gg\	.	.	.	.	.	.	.
8G\J	.	16b\	16dd\	8B\	-sit	-sit	8b\	.	-sit	-sit
.	.	16b\JJ	16dd\JJ	.	.	.	.	.	.	.
*Xtremolo	*	*	*	*	*	*	*	*	*	*
8G\L	.	8g\L	8b\L	8B\	po-	po-	8b\	.	po-	po-
8A\	.	8ee\	8gg\	16e\	-pu-	-pu-	16gg\	.	-pu-	-pu-
.	.	.	.	16e\	-lo	-lo	16gg\	.	-lo	-lo
8A\	.	8ee\	8gg\	4e\	su-	su-	4gg\	.	su-	su-
8A\J	.	8ee\J	8gg\J	.	.	.	.	.	.	.
!	!	!	!	!LO:LB:g=original	!	!	!	!	!	!
=50	=50	=50	=50	=50	=50	=50	=50	=50	=50	=50
!	!	!LO:TX:t=P:problem:mixed beam	!	!	!	!	!	!	!	!
8D\L	.	8dd\L	8ff#\	8d\	-o	-o	8ff#\	.	-o	-o
8D\	.	8f#/	4dd\	8F#/	man-	man-	8dd\	.	man-	man-
8E\	.	8g/	.	8G/	-da-	-da-	8dd\	.	-da-	-da-
8F#\J	.	8a/J	8ccn\	8A/	-vit	-vit	8ccn\	.	-vit	-vit
8G\L	.	8b/L	8b\	8B\	in	in	8b\	.	in	in
!	!	!LO:SIC:v:s=8g#	!	!	!	!	!	!	!LO:SIC:v:s=ae-	!LO:SIC:v:s=ae-
8E\	.	8g/	4ee\	8G#X/	ae-	ae-	8ee\	.	e-	e-
!	!	!	!	!	!	!	!LO:LB:g=original	!	!	!
8F#\	.	8a/	.	8A/	-ter-	-ter-	8ee\	.	-ter-	-ter-
!LO:SIC:v:s=8G#J	!	!	!	!	!	!	!	!	!	!
8G\J	.	8b/J	8dd\	8B\	-num	-num	8dd\	.	-num	-num
!	!	!LO:PB:g=original	!	!	!	!	!	!	!	!
=51	=51	=51	=51	=51	=51	=51	=51	=51	=51	=51
8A\L	.	8cc#X\L	8cc#X\	8c#\	tes-	tes-	8cc#\	.	tes-	tes-
8A\	.	8cc#\	4aa\	8c#\	-ta-	-ta-	8aa\	.	-ta-	-ta-
8B\	.	8dd\	.	8d\	-men-	-men-	8aa\	.	-men-	-men-
8c#X\J	.	8ee\J	8gg\	8e\	-tum	-tum	8gg\	.	-tum	-tum
!LO:TX:t=P:problem:mixed beam	!	!	!	!	!	!	!	!	!	!
8d\L	.	8dd\L	8ff#\L	4d\	Su-	su-	4ff#\	.	su-	su-
8D/	.	8ff#\	8ddd\	.	.	.	.	.	.	.
!	!	!	!	!LO:TX:t=t:mod=	!	!	!	!	!	!
!	!	!	!	!LO:MO:mod=4c#t	!	!	!	!	!	!
8A\	.	8cc#\	8ee\	4c#\	um	um	4ee\	.	-um	-um
!	!	!	!LO:TX:a:t=c:mod=	!	!	!	!	!	!	!
8AA/J	.	8ee\J	8ccc#\J	.	.	.	.	.	.	.
=52	=52	=52	=52	=52	=52	=52	=52	=52	=52	=52
!!!OMD:
!!!OMD-mod: Adagio
!LO:TX:a:t=adagio:mod=	!	!	!LO:TX:a:t=adagio:mod=	!	!	!	!	!	!	!
!LO:TX:t=P:problem:mixed beam	!	!LO:TX:a:t=adagio:mod=	!LO:TX:t=P:problem:mixed beam	!LO:TX:a:t=adagio:mod=	!	!	!LO:TX:a:t=ada:mod=	!	!	!
8D/L	.	16.ff#\LL	16.ddd\LL	8d\	San-	San-	8ff#\	.	san-	San-
.	.	32ff#\K	32dd\K	.	.	.	.	.	.	.
8d\	.	16.ff#\	16.dd\	8d\	-ctus	-ctum	8ff#\	.	-ctum	-ctum
.	.	32ff#\JJk	32dd\JJk	.	.	.	.	.	.	.
8d\	.	4ff#\	4dd\	8d\	et	et	8ff#\	.	e	et
8d\J	.	.	.	8d\	ter-	ter-	8ff#\	.	te-	te-
8B\L	.	16.ff#\LL	16.ddd\LL	8d\	-ri-	-ri-	8ff#\	.	-ri-	-ri-
.	.	32ff#\K	32dd\K	.	.	.	.	.	.	.
8B\	.	16.ff#\	16.dd\	8d\	-bi-	-bi-	8ff#\	.	-bi-	-bi-
.	.	32ff#\JJk	32dd\JJk	.	.	.	.	.	.	.
8B\	.	4ff#\	4dd\	4d\	-le	-le	4ff#\	.	-le	-le
8B\J	.	.	.	.	.	.	.	.	.	.
!	!	!	!	!LO:PB:g=original	!	!	!	!	!	!
=53	=53	=53	=53	=53	=53	=53	=53	=53	=53	=53
8G#X\L	.	16.ff#\LL	16.ddd\LL	8d\	No-	no-	8ff#\	.	no-	no-
.	.	32ff#\K	32dd\K	.	.	.	.	.	.	.
8G#\	.	16.ff#\	16.dd\	8d\	-men	-men	8ff#\	.	-men	-men
.	.	32ff#\JJk	32dd\JJk	.	.	.	.	.	.	.
8G#\	.	8ff#\L	8dd\L	4d\	e-	e-	4ff#\	.	e-	e-
8G#\J	.	8ff#\J	8ddd\J	.	.	.	.	.	.	.
4A\	.	4ee\	4aa\	4c#\	-jus	-jus	4ee\	.	-ius	-ius
4r	.	4r	4a/	4r	.	.	4a\	.	i-	i-
!	!	!	!	!	!	!	!LO:LB:g=original	!	!	!
=54	=54	=54	=54	=54	=54	=54	=54	=54	=54	=54
!	!	!	!	!	!	!	!LO:TX:t=P:problem:dodatkowy przekreślony tekst przez 3 takty	!	!	!
2r	.	2r	8.gg\L	2r	.	.	8.gg\	[[in-	-ni-	-ni-
.	.	.	16gg\Jk	.	.	.	16gg\	-te-	-ti-	-ti-
.	.	.	8gg\L	.	.	.	4gg\	-lec-	-um	-um
.	.	.	8gg\	.	.	.	.	.	.	.
8A\L	.	8ee\L	8gg\	8e\	Sa-	sa-	8gg\	-tus	sa-	sa-
8A\	.	8ee\	8gg\	8e\	-pi-	-pi-	8gg\	bo-	-pi-	-pi-
8A\	.	8ee\	8gg\J	8e\	-en-	-en-	8gg\	-nus-	-en-	-en-
8A\J	.	8ee\J	8ryy	8e\	-ti-	-ti-	8gg\	o-	-ti-	-ti-
=55	=55	=55	=55	=55	=55	=55	=55	=55	=55	=55
!	!	!	!	!LO:MO:mod=4d	!	!	!	!	!LO:SIC:v:s=-ae	!LO:SIC:v:s=-ae
4D/	.	4dd\	4ff#\	4d,\	-ae	-ae	4ff#\	-mni-	-e	-e
!	!	!	!LO:SIC:v:s=4ff	!	!	!	!	!	!	!
4B-X\	.	4ryy	4ff#\	4d\	Ti-	ti-	4ffn\	-bus	ti-	ti-
!	!	!	!LO:LB:g-original	!	!	!	!	!	!	!
!	!	!	!LO:SIC:v:s=8ffL	!	!	!	!	!	!	!
8G#X\L	.	8dd\L	8ff#\L	8d\	-mor	-mor	8ff\	ſa-	-mor	-mor
!	!	!	!LO:SIC:v:s=8ff	!	!	!	!	!	!	!
8G#\	.	8dd\	8ff#\	8d\	Do-	Do-	8ff\	-ci-	do-	Do-
!	!	!	!LO:SIC:v:s=8ff	!	!	!	!	!	!	!
8G#\	.	8dd\	8ff#\	8d\	-mi-	-mi-	8ff\	-en-	-mi-	-mi-
!	!	!	!LO:SIC:v:s=8ffJ	!	!	!	!	!	!	!
8G#\J	.	8dd\J	8ff#\J	8d\	-ni	-ni	8ff\	-ti-	-ni	-ni
=56	=56	=56	=56	=56	=56	=56	=56	=56	=56	=56
!!!OMD:
!!!OMD-mod: Allegro
!	!	!LO:TX:t=P:problem:mixed beam	!	!	!	!	!	!	!	!
!LO:TX:a:t=Allo:mod=	!	!LO:TX:a:t=Allo:mod=	!LO:TX:a:t=Allo:mod=	!LO:TX:a:t=Allo:mod=	!	!	!LO:TX:a:t=Allo:mod=	!	!	!
8A\L	.	8cc#\L	8ee\L	4c#\	In-	in-	4ee\	-bus	in-	in-
8A\	.	16e/L	16a\L	.	.	.	.	.	.	.
.	.	16e/JJ	16a\JJ	.	.	.	.	.	.	.
8A\	.	16a\LL	16cc#\LL	8c#\	-tel-	-tel-	8ee\	e-	-tel-	-tel-
.	.	16a\	16cc#\	.	.	.	.	.	.	.
8A\J	.	16cc#\	16ee\	8c#\	-le-	-le-	8ee\	-um	-le-	-le-
.	.	16cc#\JJ	16ee\JJ	.	.	.	.	.	.	.
!LO:MO:mod=.	!LO:MO:mod=.	!LO:MO:mod=.	!LO:MO:mod=.	!LO:MO:mod=.	!LO:MO:mod=.	!LO:MO:mod=.	!LO:MO:mod=.	!LO:MO:mod=.	!LO:MO:mod=.	!LO:MO:mod=.
=yy	=yy	=	=yy	=yy	=yy	=yy	=yy	=yy	=yy	=yy
!	!	!LO:TX:t=P:problem:mixed beam	!LO:TX:t=P:problem:mixed beam	!	!	!	!	!	!	!
8A\L	.	8ee\L	8gg\L	8c#\	-ctus	-ctus	8ee\	lau-	-ctus	-ctus
8A\	.	16e/L	16a/L	8c#\	bo-	bo-	8ee\	-da-	bo-	bo-
.	.	16e/JJ	16a/JJ	.	.	.	.	.	.	.
8A\	.	16a\LL	16cc#\LL	8c#\	-nus	-nus	8ee\	-ti-	-nus	-nus
.	.	16a\	16cc#\	.	.	.	.	.	.	.
8A\J	.	16cc#\	16ee\	8c#\	.	om-	8ee\	-o]]	o-	om-
.	.	16cc#\JJ	16ee\JJ	.	.	.	.	.	.	.
!	!	!	!	!LO:LB:g=original	!	!	!LO:LB:g=original	!	!	!
=57	=57	=57	=57	=57	=57	=57	=57	=57	=57	=57
!	!	!LO:TX:t=P:problem:mixed beam	!LO:TX:t=P:problem:mixed beam	!	!	!	!	!	!	!
8A\L	.	8ee\L	8gg\L	16c#\	fa-	-ni-	16ee\	.	-mni-	-ni-
.	.	.	.	16c#\	-ci-	-bus	16ee\	.	-bus	-bus
8A\	.	16e/L	16a/L	8c#\	-en-	fa-	8ee\	.	fa-	fa-
.	.	16e/JJ	16a/JJ	.	.	.	.	.	.	.
8A\	.	16a\LL	16cc#\LL	8c#\	-ti-	-ci-	8ee\	.	-ci-	-ci-
.	.	16a\	16cc#\	.	.	.	.	.	.	.
8A\J	.	16cc#\	16ee\	8c#\	-bus	-en-	8ee\	.	-en-	-en-
.	.	16cc#\JJ	16ee\JJ	.	.	.	.	.	.	.
!LO:TX:t=P:problem:mixed beam	!	!LO:LB:g=original	!	!	!	!	!	!	!	!
8A\L	.	16ee\LL	16gg\LL	8c#\	e-	-ti-	8ee\	.	-ti-	-ti-
.	.	16cc#\JJ	16ee\	.	.	.	.	.	.	.
8AA/	.	16a/LL	16cc#\	16c#\	-um	-bus	16ee\	.	-bus	-bus
!	!	!LO:SIC:v:s=16f#JJ	!	!	!	!	!	!	!	!
.	.	16f#/JJ 16a	16a\JJ	16c#\	lau-	e-	16ee\	.	e-	e-
8AA/	.	8e/L	8g/L	4c#\	-da-	-um	4ee\	.	-um	-um
8AA/J	.	8e/J	8g/J	.	.	.	.	.	.	.
=58	=58	=58	=58	=58	=58	=58	=58	=58	=58	=58
!	!	!	!LO:TX:t=P:problem:mixed beam	!	!	!	!	!	!	!
8D\L	.	8d/L	16f#/LL	8d\	-ti-	lau-	8ff#\	.	lau-	lau-
.	.	.	16dd\	.	.	.	.	.	.	.
16D\L	.	8a/	16dd\	8A/	-o	-da-	8dd\	.	-da-	-da-
16E\JJ	.	.	16dd\JJ	.	.	.	.	.	.	.
8F#\L	.	8a/	16dd\LL	8A/	e-	-ti-	8dd\	.	-ti-	-ti-
.	.	.	16ff#\	.	.	.	.	.	.	.
16E\L	.	8a/J	16dd\	16F#/	-jus	-o	16a\	.	-o	-o
16D\JJ	.	.	16a\JJ	16F#/	e-	e-	16a\	.	e-	e-
!	!	!LO:TX:t=P:problem:mixed beam	!	!	!	!	!	!	!	!
8G\L	.	8d/L	16b\LL	8B\	-jus	-jus	8b\	.	-ius	-jus
.	.	.	16ee\	.	.	.	.	.	.	.
16E\L	.	8b\	16ee\	8B\	.	ma-	8ee\	.	ma-	ma-
16F#\JJ	.	.	16ee\JJ	.	.	.	.	.	.	.
8G\L	.	8b\	16ee\LL	8B\L	ma-	-net	8ee\L	.	-net	-net
.	.	.	16gg\	.	.	.	.	.	.	.
16F#\L	.	8b\J	16ee\	8G\J	.	.	8b\J	.	.	.
16E\JJ	.	.	16b\JJ	.	.	.	.	.	.	.
=59	=59	=59	=59	=59	=59	=59	=59	=59	=59	=59
!	!	!LO:TX:t=P:problem:mixed beam	!	!	!	!	!	!	!	!
8A\L	.	8e/L	16cc#\LL	8A/	-net	in	8cc#\	.	in	in
.	.	.	16ff#\	.	.	.	.	.	.	.
!	!	!	!	!	!	!	!	!	!LO:SIC:v:s=sae-	!LO:SIC:v:s=sae-
16F#\L	.	8cc#\	16ff#\	8d\	in	sae-	8ff#\	.	se-	se-
16G\JJ	.	.	16ff#\JJ	.	.	.	.	.	.	.
!	!	!	!	!	!	!	!LO:LB:g=original	!	!	!
8A\L	.	8cc#\	16ff#\LL	8d\	sae-	-cu-	8ff#\	.	-cu-	-cu-
.	.	.	16aa\	.	.	.	.	.	.	.
16G\L	.	8cc#\J	16ff#\	8A/	.	-lum	8cc#\	.	-lum	-lum
16F#\JJ	.	.	16cc#\JJ	.	.	.	.	.	.	.
!	!	!	!	!LO:LB:g=original	!	!	!	!	!	!
!	!	!LO:SIC:v:s=16bLL	!	!LO:SIC:v:s=8B	!	!	!LO:MO:mod=8dd	!	!	!
8B\L	.	16cc#\LL	16dd\LL	8A/	-cu-	sae-	(8dd\	.	sae-	sae-
.	.	16ee\	16gg\	.	.	.	.	.	.	.
!	!	!	!	!LO:MO:mod=4e	!	!	!LO:MO:mod=4gg	!	!LO:MO:mod=.	!LO:MO:mod=.
16G\L	.	16ee\	16gg\	(4e\	-lum	.	4gg\)	.	-si-	-si-
16A\JJ	.	16ee\JJ	16gg\JJ	.	.	.	.	.	.	.
8B\L	.	8ee\L	16gg\LL	.	.	.	.	.	.	.
.	.	.	16bb\	.	.	.	.	.	.	.
!	!	!	!	!LO:MO:mod=8c#	!	!	!	!	!	!
16A\L	.	8b\J	16gg\	8c#\)	.	.	8ee\	.	.	.
16G\JJ	.	.	16ee\JJ	.	.	.	.	.	.	.
!	!	!	!LO:LB:g-original	!	!	!	!	!	!	!
=60	=60	=60	=60	=60	=60	=60	=60	=60	=60	=60
!LO:TX:t=P:problem:mixed beam	!	!	!LO:N:vis=16	!	!	!	!	!	!	!
8A\L	.	8e/L	8cc#\L	8c#\L	Sae-	.	8ee\L	.	.	.
!	!	!	!LO:N:vis=16	!	!	!	!	!	!	!
8D\	.	8f#/	8dd\	8d\J	.	.	8ff#\J	.	.	.
!	!	!LO:SIC:v:s=8e	!LO:N:vis=16	!	!	!	!	!	!	!
8A\	.	8f#/	8a\	8.c#\	.	.	8.ee\	.	.	.
!	!	!LO:SIC:v:s=8eJ	!LO:N:vis=16	!	!	!	!	!	!	!
8AA/J	.	8f#/J	8cc#\J	.	.	.	.	.	.	.
.	.	.	.	16c#\	-cu-	-cu-	16ee\	.	-cu-	-cu-
!LO:TX:t=P:problem:mixed beam	!	!	!	!	!	!	!	!	!	!
8D\L	.	16f#/LL	16dd\LL	4d\	-li	-li	4ff#\	.	-li	-li
.	.	16a/	16a\	.	.	.	.	.	.	.
8F#\	.	16f#/	16f#\	.	.	.	.	.	.	.
.	.	16d/JJ	16d\JJ	.	.	.	.	.	.	.
!	!	!LO:TX:t=P:problem:mixed beam	!LO:TX:t=P:problem:mixed beam	!	!	!	!	!	!	!
8A\	.	8A/L	8A/L	4r	.	.	4r	.	.	.
8AA/J	.	8cc#\J	8cc#\J	.	.	.	.	.	.	.
=61	=61	=61	=61	=61	=61	=61	=61	=61	=61	=61
!LO:TX:a:t=Solo:mod=	!	!	!	!	!	!	!	!	!	!
8D\L	.	4dd\	4dd\	00r	.	.	4dd\	.	Glo-	Glo-
8E\	.	.	.	.	.	.	.	.	.	.
8F#\	.	4r	4r	.	.	.	8dd\	.	-ri-	-ri-
8G\J	.	.	.	.	.	.	8ff#\	.	-a	-a
8A\L	.	2r	2r	.	.	.	16ee\LL	.	pa-	Pa-
.	.	.	.	.	.	.	16cc#\JJ	.	.	.
8B\	.	.	.	.	.	.	4.a\	.	-tri	-tri
8c#\	.	.	.	.	.	.	.	.	.	.
8F#\J	.	.	.	.	.	.	.	.	.	.
=62	=62	=62	=62	=62	=62	=62	=62	=62	=62	=62
!LO:TX:t=P:problem:mixed beam	!	!	!	!	!	!	!	!	!	!
8G\L	.	00r	00r	.	.	.	4b\	.	pa-	Pa-
8E\	.	.	.	.	.	.	.	.	.	.
8A\	.	.	.	.	.	.	8a\	.	-tri	-tri
8AA/J	.	.	.	.	.	.	8g\	.	et	et
!	!	!	!	!	!	!	!LO:LB:g=original	!	!	!
8D\L	.	.	.	.	.	.	16f#/	.	fi-	Fi-
.	.	.	.	.	.	.	16e/	.	-li-	-li-
16D\L	.	.	.	.	.	.	4d/	.	-o	-o
16E\JJ	.	.	.	.	.	.	.	.	.	.
8F#\L	.	.	.	.	.	.	.	.	.	.
8D\J	.	.	.	.	.	.	8r	.	.	.
!LO:LB:g=original	!	!	!	!	!	!	!	!	!	!
=63	=63	=63	=63	=63	=63	=63	=63	=63	=63	=63
!LO:TX:t=P:problem:mixed beam	!	!	!	!	!	!	!	!	!	!
8G\L	.	.	.	.	.	.	(8b\	.	et	et
8G\	.	.	.	.	.	.	4dd\)	.	.	.
8GG/	.	.	.	.	.	.	.	.	.	.
8G\J	.	.	.	.	.	.	8b\	.	spi-	Spi-
8D\L	.	.	.	.	.	.	8b\	.	-ri-	-ri-
8E\	.	.	.	.	.	.	4a\	.	-tu-	-tu-
8F#\	.	.	.	.	.	.	.	.	.	.
8D\J	.	.	.	.	.	.	8a\	.	-i	-i
=64	=64	=64	=64	=64	=64	=64	=64	=64	=64	=64
!	!	!	!	!	!	!	!LO:MO:mod=4gg	!	!	!
8D\L	.	.	.	.	.	.	(4gg\	.	san-	San-
8C#\	.	.	.	.	.	.	.	.	.	.
!	!	!	!	!	!	!	!LO:MO:mod=4ff#	!	!	!
8D\	.	.	.	.	.	.	4ff#\)	.	.	.
8G\J	.	.	.	.	.	.	.	.	.	.
!LO:TX:t=P:problem:mixed beam	!	!	!	!	!	!	!	!	!	!
8A\L	.	.	.	.	.	.	8ff#\	.	.	.
8AA/J	.	.	.	.	.	.	8ee\	.	-cto	-cto
8C#/L	.	.	.	.	.	.	4r	.	.	.
8AA/J	.	.	.	.	.	.	.	.	.	.
=65	=65	=65	=65	=65	=65	=65	=65	=65	=65	=65
8D\L	.	.	.	1r	.	.	8ff#\	.	et	et
8D\	.	.	.	.	.	.	4ee\	.	.	.
8G\	.	.	.	.	.	.	.	.	.	.
8B\J	.	.	.	.	.	.	8dd\	.	spi-	Spi-
8A\L	.	.	.	.	.	.	4cc#\	.	-ri-	-ri-
8G\	.	.	.	.	.	.	.	.	.	.
8F#\	.	.	.	.	.	.	8dd\	.	-tu-	-tu-
8G\J	.	.	.	.	.	.	8ee\	.	-i	-i
=66	=66	=66	=66	=66	=66	=66	=66	=66	=66	=66
!LO:TX:t=P:problem:mixed beam	!	!	!	!	!	!	!	!	!	!
8A\L	.	2r	2r	2r	.	.	4dd\	.	sanc-	San-
8G\	.	.	.	.	.	.	.	.	.	.
8A\	.	.	.	.	.	.	4ee\	.	.	.
8AA/J	.	.	.	.	.	.	.	.	.	.
!LO:TX:a:t=Tutti:mod=	!	!	!	!	!	!	!LO:PB:g=original	!	!	!
8D\L	.	8f#/L	4.dd\	4r	.	.	4dd\	.	-to	-cto
8E\	.	8g/	.	.	.	.	.	.	.	.
8F#\	.	8a/	.	8A\	Si-	Si-	8dd\	.	ſi-	Si-
8G\J	.	8b/J	8ff#\	8B\	-cut	-cut	8ff#\	.	-cut	-cut
=67	=67	=67	=67	=67	=67	=67	=67	=67	=67	=67
8A\L	.	8cc#\L	16ee\LL	8c#\L	e-	e-	16ee\LL	.	e-	e-
.	.	.	16cc#\JJ	.	.	.	16cc#\JJ	.	.	.
8B\	.	8dd\	4.a/	8d\J	.	.	4.a\	.	-rat	-rat
8c#\	.	8ee\	.	8e\L	-rat	-rat	.	.	.	.
8F#\J	.	8a\J	.	8c#\J	.	.	.	.	.	.
!LO:TX:t=P:problem:mixed beam	!	!	!	!	!	!	!	!	!	!
8G\L	.	16g/LL	16b\LL	4G/	in	in	4b\	.	in	in
.	.	16b/	16dd\	.	.	.	.	.	.	.
8E\	.	16a/	16cc#\	.	.	.	.	.	.	.
.	.	16g/JJ	16b\JJ	.	.	.	.	.	.	.
!	!	!	!	!LO:TX:t=P:problem:mixed beam	!	!	!	!	!	!
8A\	.	16f#/LL	16a/LL	8F#/L	prin-	prin-	8a\L	.	prin-	prin-
.	.	16e/	16g/	.	.	.	.	.	.	.
8AA/J	.	16d/	16f#/	8e\J	.	.	8g\J	.	.	.
.	.	16c#/JJ	16e/JJ	.	.	.	.	.	.	.
=68	=68	=68	=68	=68	=68	=68	=68	=68	=68	=68
4D\	.	16d/LL	16f#/LL	16d\	-ci-	-ci-	16f#/	.	-ci-	-ci-
.	.	16c#/J	16e/J	16c#\	-pi-	-pi-	16e/	.	-pi-	-pi-
.	.	8d/J	8d/J	8d\	-o	-o	8d/	.	-o	-o
!	!	!	!	!LO:LB:g=original	!	!	!	!	!	!
8D\L	.	16A/LL	16d/LL	4A\	et	et	4dd\	.	et	et
.	.	16d/	16f#/	.	.	.	.	.	.	.
8D\J	.	16f#/	16a/	.	.	.	.	.	.	.
.	.	16a/JJ	16dd/JJ	.	.	.	.	.	.	.
*tremolo	*	*	*	*	*	*	*	*	*	*
!	!	!LO:LB:g=original	!	!	!	!	!	!	!	!
8D\L	.	16f#/LL	16a\LL	8A\	nunc	nunc	8dd\	.	nunc	nunc
.	.	16a/	16dd\	.	.	.	.	.	.	.
8D\	.	16dd/	16ff#\	8A\	et	et	8dd\	.	et	et
.	.	16ff#/JJ	16aa\JJ	.	.	.	.	.	.	.
8D\	.	8a/L	16ff#\LL	4A\	Sem-	sem-	8dd\L	.	sem-	sem-
.	.	.	16dd\	.	.	.	.	.	.	.
8D\J	.	8a/J	16ccn\	.	.	.	8ccn\J	.	.	.
.	.	.	16a\JJ	.	.	.	.	.	.	.
*Xtremolo	*	*	*	*	*	*	*	*	*	*
=69	=69	=69	=69	=69	=69	=69	=69	=69	=69	=69
!LO:TX:t=P:problem:mixed beam	!	!	!LO:SIC:v:s=8qqcc	!	!	!	!	!	!	!
.	.	8qqa/	8qqcc#/	.	.	.	.	.	.	.
8G\L	.	4g/	4b\	4G/	-per	-per	4b\	.	-per	-per
8GG/	.	.	.	.	.	.	.	.	.	.
8E\	.	16B/LL	16e/LL	8B\	et	et	8ee\	.	et	et
.	.	16e/	16g#X/	.	.	.	.	.	.	.
8E\J	.	16g#X/	16b/	8B\	in	in	8ee\	.	in	in
.	.	16b/JJ	16ee/JJ	.	.	.	.	.	.	.
!	!	!	!	!	!LO:SIC:v:s=sae-	!LO:SIC:v:s=sae-	!	!	!LO:SIC:v:s=sae-	!LO:SIC:v:s=sae-
8E\L	.	16g#/LL	16b\LL	4.B\	se-	se-	4.ee\	.	ſe-	ſe-
.	.	16b/	16ee\	.	.	.	.	.	.	.
8E\	.	16ee/	16gg#X\	.	.	.	.	.	.	.
.	.	16gg#X/JJ	16bb\JJ	.	.	.	.	.	.	.
8E\	.	8b\L	16gg#\LL	.	.	.	.	.	.	.
.	.	.	16ee\	.	.	.	.	.	.	.
8E\J	.	8b\J	16dd\	8B\	-cu-	-cu-	8dd\	.	-cu-	-cu-
.	.	.	16b\JJ	.	.	.	.	.	.	.
!	!	!	!LO:LB:g-original	!	!	!	!LO:LB:g=original	!	!	!
=70	=70	=70	=70	=70	=70	=70	=70	=70	=70	=70
!LO:TX:t=P:problem:mixed beam	!	!	!	!	!	!	!	!	!	!
.	.	8qqb/	.	.	.	.	.	.	.	.
8A\L	.	4a\	4cc#\	4A\	-la.	-la.\	4cc#\	.	-la	-la
8AA/	.	.	.	.	.	.	.	.	.	.
!	!	!	!	!	!LO:SIC:v:s=sae-	!LO:SIC:v:s=sae-	!	!	!LO:SIC:v:s=sae-	!LO:SIC:v:s=sae-
8A\	.	8cc#\L	16A/LL	8c#\	se-	se-	8ee\	.	ſe-	ſe-
.	.	.	16c#/	.	.	.	.	.	.	.
8A\J	.	8cc#\J	16e/	8c#\	-cu-	-cu-	8ee\	.	-cu-	-cu-
.	.	.	16a/JJ	.	.	.	.	.	.	.
!	!	!LO:TX:t=P:problem:mixed beam	!	!	!	!	!	!	!	!
*tremolo	*	*	*	*	*	*	*	*	*	*
8A\L	.	8cc#\L	16e/LL	8c#\	-lo-	-lo-	8ee\	.	-lo-	-lo-
.	.	.	16a/	.	.	.	.	.	.	.
8A\	.	8cc#\	16cc#/	8c#\	-rum	-rum	8ee\	.	-rum	-rum
.	.	.	16ee/JJ	.	.	.	.	.	.	.
8A\	.	8e/	16cc#/LL	4c#\	a-	a-	4ee\	.	a-	a-
.	.	.	16a/	.	.	.	.	.	.	.
8A\J	.	8e/J	16g/	.	.	.	.	.	.	.
.	.	.	16e/JJ	.	.	.	.	.	.	.
*Xtremolo	*	*	*	*	*	*	*	*	*	*
!LO:LB:g=original	!	!	!	!	!	!	!	!	!	!
=71	=71	=71	=71	=71	=71	=71	=71	=71	=71	=71
!LO:TX:t=P:problem:mixed beam	!	!	!	!	!	!	!	!	!	!
8d\L	.	16d/LL	16f#/LL	4d\	-men	-men	4ff#\	.	-men	-men
.	.	16d/	16d/	.	.	.	.	.	.	.
8D/	.	16f#/	16f#/	.	.	.	.	.	.	.
.	.	16a/JJ	16a/JJ	.	.	.	.	.	.	.
!	!	!	!	!	!LO:SIC:v:s=sae-	!LO:SIC:v:s=sae-	!	!	!LO:SIC:v:s=sae-	!LO:SIC:v:s=sae-
8D/	.	16dd\LL	16dd\LL	8d\	se-	se-	8ff#\	.	ſe-	ſe-
.	.	16dd\	16dd\	.	.	.	.	.	.	.
8D/J	.	16ff#\	16ff#\	8d\	-cu-	-cu-	8ff#\	.	-cu-	-cu-
.	.	16aa\JJ	16aa\JJ	.	.	.	.	.	.	.
!LO:TX:t=P:problem:mixed beam	!	!	!	!	!	!	!	!	!	!
8D\L	.	8ddd\L	8bb\L	8d\	-lo-	-lo-	8ff#\	.	-lo-	-lo-
!LO:TX:a:t=d	!	!	!	!	!	!	!	!	!	!
8F#\	.	8dd\J	8dd\J	8d\	-rum	-rum	8ff#\	.	-rum	-rum
8A\	.	4cc#\	4eeT\	4c#\	a-	a-	4ee\	.	a-	a-
8AA/J	.	.	.	.	.	.	.	.	.	.
!	!	!	!	!LO:LB:g=original	!	!	!	!	!	!
=72	=72	=72	=72	=72	=72	=72	=72	=72	=72	=72
!LO:TX:t=P:problem:mixed beam	!	!	!	!	!	!	!	!	!	!
8D\L	.	8dd\L	8dd\L	8d\	-men	-men	8ff#\	.	-men	-men
8F#\	.	8ff#\	8ddd\	(8d\	a-	a-	(8ff#\	.	a-	a-
8A\	.	8cc#\	8ee\	4c#\)	.	.	4ee\)	.	.	.
8AA/J	.	8ee\J	8ccc#\J	.	.	.	.	.	.	.
4D\	.	4ff#\	4ddd\	4d\	-men	-men	4ff#\	.	-men	-men
4r	.	4r	4r	4r	.	.	4r	.	.	.
==	==	==	==	==	==	==	==	==	==	==
*-	*-	*-	*-	*-	*-	*-	*-	*-	*-	*-
!!!system-decoration: [(g1)][(g2)][(g3)]
!!!ENC: Berenika Jozajtis
!!!END: 2020-05-16
!!!EED: Anna Matuszewska
!!!EEV: 2020-09-08
!!!RDF**kern: | = vertical stroke
!!!EED-revision: Andrzej Borzym
!!!EEV-revision: 2025-03-03
!!!ENC-modern: Andrzej Borzym
!!!END-modern: 2025-03-03
